src/assets/outline/PlayRemove.svg

<svg width="24" height="24" viewBox="0 0 24 24"  xmlns="http://www.w3.org/2000/svg">
<path d="M12 22.75C6.07 22.75 1.25 17.93 1.25 12C1.25 6.07 6.07 1.25 12 1.25C17.93 1.25 22.75 6.07 22.75 12C22.75 13.4 22.49 14.74 21.97 16C21.88 16.21 21.71 16.37 21.49 16.43C21.27 16.5 21.04 16.46 20.85 16.33C19.67 15.52 18.07 15.58 16.96 16.46C16.19 17.07 15.74 18 15.74 18.99C15.74 19.58 15.9 20.16 16.21 20.66C16.24 20.71 16.26 20.74 16.29 20.77C16.45 20.95 16.51 21.2 16.46 21.44C16.41 21.68 16.24 21.87 16.01 21.96C14.74 22.49 13.39 22.75 12 22.75ZM12 2.75C6.9 2.75 2.75 6.9 2.75 12C2.75 17.1 6.9 21.25 12 21.25C12.9 21.25 13.78 21.12 14.63 20.86C14.38 20.28 14.25 19.65 14.25 19C14.25 17.54 14.9 16.19 16.03 15.29C17.38 14.21 19.3 13.96 20.86 14.63C21.11 13.79 21.24 12.9 21.24 11.99C21.25 6.89999 17.1 2.75 12 2.75Z" />
<path d="M10.8799 16.0701C10.4899 16.0701 10.1199 15.9801 9.79987 15.7901C9.05987 15.3601 8.62988 14.4901 8.62988 13.3901V10.6101C8.62988 9.51008 9.05987 8.64011 9.79987 8.21011C10.5499 7.78011 11.5199 7.85011 12.4699 8.40011L14.8699 9.79007C15.8199 10.3401 16.3599 11.1501 16.3599 12.0001C16.3599 12.8501 15.8199 13.6701 14.8699 14.2101L12.4699 15.6001C11.9299 15.9101 11.3899 16.0701 10.8799 16.0701ZM10.8899 9.43008C10.7599 9.43008 10.6499 9.4601 10.5499 9.5101C10.2799 9.6701 10.1299 10.0701 10.1299 10.6101V13.3901C10.1299 13.9301 10.2799 14.3401 10.5499 14.4901C10.8199 14.6401 11.2399 14.5801 11.7199 14.3001L14.1199 12.9101C14.5899 12.6401 14.8599 12.3001 14.8599 11.9901C14.8599 11.6801 14.5899 11.3501 14.1199 11.0701L11.7199 9.68008C11.4099 9.52008 11.1299 9.43008 10.8899 9.43008Z" />
<path d="M19 23.75C17.43 23.75 15.98 22.98 15.11 21.69C15.07 21.66 14.99 21.54 14.93 21.43C14.49 20.72 14.25 19.87 14.25 19C14.25 17.54 14.9 16.19 16.03 15.29C17.64 14.01 20.01 13.92 21.7 15.1C22.98 15.99 23.74 17.44 23.74 19C23.74 19.87 23.5 20.7201 23.05 21.4501C22.8 21.8701 22.48 22.25 22.1 22.57C21.28 23.33 20.17 23.75 19 23.75ZM19 15.75C18.26 15.75 17.56 16 16.97 16.47C16.2 17.08 15.75 18.01 15.75 19C15.75 19.59 15.91 20.17 16.22 20.67C16.25 20.72 16.27 20.7501 16.3 20.7801C16.95 21.7301 17.94 22.25 19.01 22.25C19.8 22.25 20.56 21.96 21.14 21.44C21.4 21.22 21.62 20.96 21.78 20.68C22.1 20.17 22.26 19.59 22.26 19C22.26 17.94 21.74 16.9401 20.86 16.3401C20.3 15.9501 19.66 15.75 19 15.75Z" />
<path d="M20.0699 20.7901C19.8799 20.7901 19.6899 20.7201 19.5399 20.5701L17.4299 18.4601C17.1399 18.1701 17.1399 17.6901 17.4299 17.4001C17.7199 17.1101 18.1999 17.1101 18.4899 17.4001L20.5999 19.5101C20.8899 19.8001 20.8899 20.2801 20.5999 20.5701C20.4499 20.7201 20.2599 20.7901 20.0699 20.7901Z" />
<path d="M17.9301 20.8199C17.7401 20.8199 17.5501 20.7499 17.4001 20.5999C17.1101 20.3099 17.1101 19.8299 17.4001 19.5399L19.5101 17.4299C19.8001 17.1399 20.2801 17.1399 20.5701 17.4299C20.8601 17.7199 20.8601 18.1999 20.5701 18.4899L18.4601 20.5999C18.3101 20.7499 18.1201 20.8199 17.9301 20.8199Z" />
</svg>

<?xml version="1.0" encoding="UTF-8"?>
<svg width="24" height="24" viewBox="0 0 24 24" xmlns="http://www.w3.org/2000/svg">
 <path d="m12 22.75c-5.93 0-10.75-4.82-10.75-10.75s4.82-10.75 10.75-10.75 10.75 4.82 10.75 10.75c0 1.4-0.26 2.74-0.78 4-0.09 0.21-0.26 0.37-0.48 0.43-0.22 0.07-0.45 0.03-0.64-0.1-1.18-0.81-2.78-0.75-3.89 0.13-0.77 0.61-1.22 1.54-1.22 2.53 0 0.59 0.16 1.17 0.47 1.67 0.03 0.05 0.05 0.08 0.08 0.11 0.16 0.18 0.22 0.43 0.17 0.67s-0.22 0.43-0.45 0.52c-1.27 0.53-2.62 0.79-4.01 0.79zm0-20c-5.1 0-9.25 4.15-9.25 9.25s4.15 9.25 9.25 9.25c0.9 0 1.78-0.13 2.63-0.39-0.25-0.58-0.38-1.21-0.38-1.86 0-1.46 0.65-2.81 1.78-3.71 1.35-1.08 3.27-1.33 4.83-0.66 0.25-0.84 0.38-1.73 0.38-2.64 0.01-5.09-4.14-9.24-9.24-9.24z"/>
 <path d="m10.88 16.07c-0.39 0-0.76-0.09-1.08-0.28-0.74-0.43-1.17-1.3-1.17-2.4v-2.78c0-1.1 0.42999-1.97 1.17-2.4 0.75003-0.43 1.72-0.36 2.67 0.19l2.4 1.39c0.95 0.55003 1.49 1.36 1.49 2.21s-0.54 1.67-1.49 2.21l-2.4 1.39c-0.54 0.31-1.08 0.47-1.59 0.47zm0.01-6.64c-0.13 0-0.24 0.03002-0.34 0.08002-0.27 0.16-0.42 0.56-0.42 1.1v2.78c0 0.54 0.15 0.95 0.42 1.1s0.69 0.09 1.17-0.19l2.4-1.39c0.47-0.27 0.74-0.61 0.74-0.92s-0.27-0.64-0.74-0.92l-2.4-1.39c-0.31-0.16-0.59-0.25-0.83-0.25z"/>
 <path d="m19 23.75c-1.57 0-3.02-0.77-3.89-2.06-0.04-0.03-0.12-0.15-0.18-0.26-0.44-0.71-0.68-1.56-0.68-2.43 0-1.46 0.65-2.81 1.78-3.71 1.61-1.28 3.98-1.37 5.67-0.19 1.28 0.89 2.04 2.34 2.04 3.9 0 0.87-0.24 1.7201-0.69 2.4501-0.25 0.42-0.57 0.7999-0.95 1.1199-0.82 0.76-1.93 1.18-3.1 1.18zm0-8c-0.74 0-1.44 0.25-2.03 0.72-0.77 0.61-1.22 1.54-1.22 2.53 0 0.59 0.16 1.17 0.47 1.67 0.03 0.05 0.05 0.0801 0.08 0.1101 0.65 0.95 1.64 1.4699 2.71 1.4699 0.79 0 1.55-0.29 2.13-0.81 0.26-0.22 0.48-0.48 0.64-0.76 0.32-0.51 0.48-1.09 0.48-1.68 0-1.06-0.52-2.0599-1.4-2.6599-0.56-0.39-1.2-0.5901-1.86-0.5901z"/>
 <path d="m20.07 20.79c-0.19 0-0.38-0.07-0.53-0.22l-2.11-2.11c-0.29-0.29-0.29-0.77 0-1.06s0.77-0.29 1.06 0l2.11 2.11c0.29 0.29 0.29 0.77 0 1.06-0.15 0.15-0.34 0.22-0.53 0.22z"/>
 <path d="m17.93 20.82c-0.19 0-0.38-0.07-0.53-0.22-0.29-0.29-0.29-0.77 0-1.06l2.11-2.11c0.29-0.29 0.77-0.29 1.06 0s0.29 0.77 0 1.06l-2.11 2.11c-0.15 0.15-0.34 0.22-0.53 0.22z"/>
</svg>
